!!!COM: Distler, Hugo
!!!CDT: 1908-1942
!!!OPR@@DE: Der Jahrkreis
!!!OPR@EN: The Year Cycle
!!!OTL@@DE: Wir glauben an Gott, den Vater
!!!OTL@EN: We believe in God, the Father
!!!OPS: 5
!!!ONM: 1
**kern	**text	**kern	**text	**kern	**text
*part3	*part3	*part2	*part2	*part1	*part1
*staff3	*staff3	*staff2	*staff2	*staff1	*staff1
*Ialto	*	*Isoprn	*	*Isoprn	*
*clefG2	*	*clefG2	*	*clefG2	*
*k[f#]	*	*k[f#]	*	*k[f#]	*
*MM120	*	*MM120	*	*MM120	*
4B	Wir	4b	Wir	4b	Wir
=1	=1	=1	=1	=1	=1
*M4/4	*	*M4/4	*	*M4/4	*
2c	glau-	2cc	glau-	2cc	glau-
4d	ben	4dd	ben	4dd	ben
4B	an	4b	an	4b	an
=2	=2	=2	=2	=2	=2
*M6/4	*	*M6/4	*	*M6/4	*
(2e	Gott,	(2ee	Gott,	(2ee	Gott,
4d)	.	4dd)	.	4dd)	.
4B	den	4b	den	4b	den
2c	Va-	2cc	Va-	2cc	Va-
=3	=3	=3	=3	=3	=3
4B,	ter,	2b	ter,	1.b	ter,
4B	all-	.	.	.	.
2c	maech-	4r	.	.	.
.	.	4f#	all-	.	.
4d	ti-	2g	maech-	.	.
4B	gen	.	.	.	.
=4	=4	=4	=4	=4	=4
(2d	Herrn	4a	ti-	4r	.
.	.	2f#,	gen,	4b	all-
4c)	.	.	.	2cc	maech-
4B	und	4e	all-	.	.
*^		*	*	*	*	*
2A	2A	Schoep-	2fn	maech-	4dd	ti-
.	.	.	.	.	4b	gen
=5	=5	=5	=5	=5	=5	=5
2B	2G	fer,	4g	ti-	(2dd	Herrn
*v	*v	*	*	*	*	*
.	.	4e	gen	.	.
2r	.	4g	Herrn	4cc)	.
.	.	4g	und	4b	und
4c	der	2fn	Schoep-	2a	Schoep-
4d	im	.	.	.	.
=6	=6	=6	=6	=6	=6
(4.e	An-	2c	fer,	4g,	fer,
.	.	.	.	4g	der
8d)	.	.	.	.	.
4c	be-	4r	.	4a	im
4d,	ginn,	2.r	.	(4.b	An-
4d	der	.	.	.	.
.	.	.	.	8a)	.
4e	im	.	.	4g	be-
=7	=7	=7	=7	=7	=7
4.fn	An-	4r	.	(2a	ginn
.	.	4a	der	.	.
8e	be-	.	.	.	.
4d	ginn	4a	im	4g)	.
2d	liess	4.a	An-	4f#	liess
.	.	.	.	2e	wer-
.	.	8a	be-	.	.
4c#	wer-	4a	ginn	.	.
=8	=8	=8	=8	=8	=8
*M4/4	*	*M4/4	*	*M4/4	*
2d	den	4a	liess	4f#,	den
.	.	4b	wer-	2g	durch
2r	.	4b,	den	.	.
.	.	[4b	durch	4a	sein
=9	=9	=9	=9	=9	=9
2r	.	4b]	.	2b	Wort
.	.	4cc#	sein	.	.
4G	durch	4dd	Wort	[2b	Him-
4A	sein	([4dd	Him-	.	.
=10	=10	=10	=10	=10	=10
2B	Wort	8ddL]	.	4b]	.
.	.	8cc#	.	.	.
.	.	8b	.	4g	mel
.	.	8cc#	.	.	.
4B	Him-	8dd	.	2a	und
.	.	8eeJ	.	.	.
[4B	mel	[4dd	.	.	.
=11	=11	=11	=11	=11	=11
4B]	.	8dd])	.	(2g	Er-
.	.	8cc#	mel	.	.
4G	und	4b	und	.	.
*	*	*	*	*^		*
2A	Er-	2a	Er-	2f#)	2f#)	.
=12	=12	=12	=12	=12	=12	=12
*M6/4	*	*M6/4	*	*M6/4	*M6/4	*
1e	den.	1b	den.	1g#	1e	den.
*	*	*	*	*v	*v	*
=13||	=13||	=13||	=13||	=13||	=13||
*M4/4	*	*M4/4	*	*M4/4	*
4g	Glau-	4b	Glau-	4b	Glau-
4f#	ben	4b	ben	4cc	ben
4e	auch	4a	auch	4dd	auch
4d	an'	4g	an'	4b	an'
=14	=14	=14	=14	=14	=14
*M5/4	*	*M5/4	*	*M5/4	*
(2c	hei-	(2cc	hei-	(2ee	hei-
2G)	.	4.b)	.	4.dd	.
.	.	8a	li-	8cc)	.
*	*	*	*	*^		*
4G	li-	4g	gen	4b	4b	li-
=15	=15	=15	=15	=15	=15	=15
*M4/4	*	*M4/4	*	*M4/4	*M4/4	*
2A	gen	2.e,	Geist,	2cc	2a	gen
2e	Geist,	.	.	2b	2g	Geist,
.	.	4e	von	.	.	.
*	*	*	*	*v	*v	*
=16	=16	=16	=16	=16	=16
2r	.	2fn	wel-	4r	.
.	.	.	.	4b	von
4r	.	4e	chem	2cc	wel-
4e	von	4e	die	.	.
=17	=17	=17	=17	=17	=17
2fn	wel-	2a	Schrift	4dd	chem
.	.	.	.	4b	die
4g	chem	(4.g	al-	4dd	Schrift
4e	die	.	.	[(4cc	al-
.	.	8fn	.	.	.
=18	=18	=18	=18	=18	=18
4a	Schrift	4e	.	4cc]	.
2g	al-	4c)	.	4b)	.
.	.	2d	ler-	2a	ler-
4f#	ler-	.	.	.	.
=19	=19	=19	=19	=19	=19
4g,	meist	4g,	meist	4g,	meist
4g	und	4.g	und	4g	und
4e	al-	.	.	4g	al-
.	.	8f#	al-	.	.
4c	le	4e	le	4a	le
=20	=20	=20	=20	=20	=20
2G	Weis-	4d	Weis-	2b	Weis-
.	.	4d	heit	.	.
2d	heit	4e	ist	4b	heit
.	.	([4f#	kom-	4a	ist
=21	=21	=21	=21	=21	=21
2d	ist	4f#]	.	(4f#	kom-
.	.	4e	.	4g	.
2G	kom-	4d	.	2e)	.
.	.	4c)	.	.	.
=22	=22	=22	=22	=22	=2
2d	men,	2d	men,	4d,	men,
.	.	.	.	4g	den
4r	.	4r	.	4a	Aus-
4B	den	4d	den	4b	er-
=23	=23	=23	=23	=23	=23
4c	Aus-	4e	Aus-	2b	waehl-
4e	er-	4g	er-	.	.
4.d	waehl-	4.f#	waehl-	4g	ten
.	.	.	.	4a	zu
8d	ten	8e	ten	.	.
=24	=24	=24	=24	=24	=24
*M6/4	*	*M6/4	*	*M6/4	*
4d	zu	4d	zu	2f#	fom-
4d	from-	4d	from-	.	.
[1A	men.	4c#,	men,	2.e,	men,
.	.	4a	zu	.	.
.	.	4f#	from-	.	.
.	.	4e	men	4ee	zu
=25	=25	=25	=25	=25	=25
*M4/4	*	*M4/4	*	*M4/4	*
1A_	.	4a	zu	4cc#	from-
.	.	4f#	from-	4b,	men,
.	.	4e,	men,	4ee	zu
.	.	4a	zu	4cc#	from-
=26	=26	=26	=26	=26	=26
1A_	.	4f#	from-	4b,	men,
.	.	4e,	men,	4ee	zu
.	.	4a	zu	(4.cc#	from-
.	.	(4f#	from-	.	.
.	.	.	.	8ddL	.
=27	=27	=27	=27	=27	=27
1A]	.	4.e	.	8ee	.
.	.	.	.	8ff#J	.
.	.	.	.	2ee)	.
.	.	8f#L	.	.	.
.	.	8a	.	.	.
*	*	*^		*	*	*
.	.	8b)	8b)	.	.	.
.	.	4cc#	4a	men.	4ee	men.
*	*	*v	*v	*	*	*
==	==	==	==	==	==
*-	*-	*-	*-	*-	*-
!!!YOR: Bärenreiter-Ausgabe 676
!!!YOY: 1933
!!!EFL: 27/52
!!!URL-scan: https://imslp.eu/files/imglnks/euimg/7/7d/IMSLP834545-PMLP518834-5-jahrkreis-EA--original-paper-600dpi.pdf#page=50
!!!URL-imslp:https://imslp.org/wiki/Der_Jahrkreis,_Op.5_(Distler,_Hugo)#IMSLP834545
!!!system-decoration: [(s1,s2,s3)]
!!!ENC: Lucas Hofmann
!!!END: 2024/01/02
